X:142
T:Geaghan's Fancy (sp?)
T:Eileen O'Callaghan's
T:Paddy Canny's
S:Buttons & Bows, 'Gracenotes'
Z:Nigel Gatherer
M:4/4
L:1/8
K:A
A2 cA EAcB|ABce dBGB|A2 cA EAce|efge dBGB|A2 cA EAcB|
ABce dBGB|Ac c/c/c ecAc|efge dBGB||eaag a2 ga|beee begf|
eaag a2 gf|efge dBGB|eaag a2 ga|b2 ba bagf|eaaa c'aag|efge dBGB|]
<end>
<start>
